X: 15
T:Le pont
R:Bourre  2 temps
C:Frdric Paris
O:France
A:Centre
S:80 airs  danser du centre France - La Chavanne - 1991
S:15
Z:Transcrit et/ou corrig par Michel BELLON - 2005-05-16
Z:Pour toute observation mailto:galouvielle@free.fr
M:2/4
L:1/8
K:Bb
d>e dd | c/2d/2c/2B/2 A/2G/2A/2B/2 | d>e dd | c/2B/2c/2d/2 e/2d/2e/2f/2 | d>e dd | c/2d/2c/2B/2 A/2G/2A/2B/2 |
d>e dd c/2d/2e/2f/2 d2 :: g/2f/2g/2a/2 f/2=e/2f/2g/2 | =e/2d/2e/2f/2 d2 | c/2d/2c/2B/2 A/2G/2A/2B/2 |
c/2d/2c/2B/2 AG | g/2f/2g/2A/2 f/2=e/2f/2g/2 | =e/2d/2e/2f/2 d((3d/2e/2f/2) | gg f/2a/2g/2f/2 | g>f g2 :|
%%footer $D   Galouvielle-MBe 2005 \nBourre  2 temps France
